ui/src/assets/icons/item-categories/item_cat_jewel.svg

<svg xmlns="http://www.w3.org/2000/svg" viewBox="0 0 512 512"><path d="M0 0h512v512H0z"/><path fill="#fff" d="M310.375 16.75 89.405 75.72l58.126 50.905L282.563 90.28l2.032-.53 25.78-73zm17.063 7.844-27.157 76.812 91.69 91.875 95.624-8.78L327.438 24.594zm-41.813 12.062-8.594 33.657c-.28-15.516-38.03-17.018-107.56-4.376l116.155-29.28zm51.063 14.625 123.5 123.407-58.844 7.563c16.2-21.37-32.277-91.112-64.656-130.97zM74.75 87.72 15.594 308.405l79-31.47 37.28-139.155L74.75 87.72zm207.438 22-133.032 35.81-35.72 133.376 97.25 97.53 133.064-35.81 35.72-133.376-97.283-97.53zm-201.72 5.686 32.844 30.5-30.156 118.97-39.03 15.812c50.817-30.543 65.667-130.132 36.343-165.282zm195.876 14.78L359 213.377l-30.156 113.81-44.688 11.97c119.527-107.872-34.816-238.375-131.5-140.875l9.875-37.405 113.814-30.688zM490.564 203l-92.877 8.53-35.968 134.19 71.342 71.842L490.563 203zm-17.283 13.875L444.03 333.03c6.73-68.874-.03-90.85-30.655-111.5l59.906-4.655zm-371.155 77.188L20.22 326.688l161.75 161.468 17.31-96.72-97.155-97.373zm.094 20 78.124 82.437-7.438 61.375c-5.23-44.565-28.34-85.92-70.687-143.813zm246.124 44.687-130.53 35.125-17.564 98.188 221.688-59.157-73.594-74.156zm18.625 42.5 24.28 24.844-115.22 32.72c61.28-26.446 83.34-37.418 90.94-57.564z"/></svg>

<svg xmlns="http://www.w3.org/2000/svg" viewBox="0 0 512 512"><path d="M0 0h512v512H0z"/>
    <!-- Top left facet (upper gem plane) -->
    <path fill="#fff" data-channel="facet" d="M310.375 16.75L89.405 75.72 147.531 126.625 282.563 90.28 284.595 89.75 310.375 16.75Z"/>
    <!-- Top right facet (upper gem plane) -->
    <path fill="#fff" data-channel="facet" d="M327.438 24.594L300.281 101.406 391.971 193.281 487.595 184.501 327.438 24.594Z"/>
    <!-- Top facet highlight (bright reflection) -->
    <path fill="#fff" data-channel="highlight" d="M285.625 36.656L277.031 70.313C276.751 54.797 239.001 53.295 169.471 65.937L285.626 36.657Z"/>
    <!-- Top right highlight (bright reflection) -->
    <path fill="#fff" data-channel="highlight" d="M336.688 51.281L460.188 174.688 401.344 182.251C417.544 160.881 369.067 91.139 336.688 51.281Z"/>
    <!-- Left facet (side plane) -->
    <path fill="#fff" data-channel="facet" d="M74.75 87.72L15.594 308.405 94.594 276.935 131.874 137.78 74.75 87.72Z"/>
    <!-- Center facet (main front plane) -->
    <path fill="#fff" data-channel="primary" d="M282.188 109.72L149.156 145.53 113.436 278.906 210.686 376.436 343.75 340.626 379.47 207.25 282.187 109.72Z"/>
    <!-- Left shadow (darker shaded area) -->
    <path fill="#fff" data-channel="shadow" d="M80.468 115.406L113.312 145.906 83.156 264.876 44.126 280.688C94.943 250.145 109.793 150.556 80.469 115.406Z"/>
    <!-- Center detail (inner facet lines) -->
    <path fill="#fff" data-channel="detail" d="M276.344 130.186L359 213.377 328.844 327.187 284.156 339.157C403.683 231.285 249.34 100.782 152.656 198.282L162.531 160.877 276.345 130.189Z"/>
    <!-- Right facet (side plane) -->
    <path fill="#fff" data-channel="facet" d="M490.564 203L397.687 211.53 361.719 345.72 433.061 417.562 490.563 203Z"/>
    <!-- Right highlight (bright reflection) -->
    <path fill="#fff" data-channel="highlight" d="M473.281 216.875L444.03 333.03C450.76 264.156 444 242.18 413.375 221.53L473.281 216.875Z"/>
    <!-- Bottom left facet (lower gem plane) -->
    <path fill="#fff" data-channel="facet" d="M102.126 294.063L20.22 326.688 181.97 488.156 199.28 391.436 102.125 294.063Z"/>
    <!-- Bottom left shadow (darker shaded area) -->
    <path fill="#fff" data-channel="shadow" d="M102.22 314.063L180.344 396.5 172.906 457.875C167.676 413.31 144.566 371.955 102.219 314.062Z"/>
    <!-- Bottom right facet (lower gem plane) -->
    <path fill="#fff" data-channel="facet" d="M348.344 358.75L217.814 393.875 200.25 492.063 421.938 432.906 348.344 358.75Z"/>
    <!-- Bottom right edge (facet edge line) -->
    <path fill="#fff" data-channel="edge" d="M366.969 401.25L391.249 426.094 276.029 458.814C337.309 432.368 359.369 421.396 366.969 401.25Z"/></svg>
